.config/raycast/extensions/1d7e24ea-6166-41b0-a549-fe87467c0900/assets/icons/devices/generic/speaker.svg

<svg xmlns="http://www.w3.org/2000/svg" xml:space="preserve" viewBox="0 0 128 128">
  <circle cx="64" cy="64" r="64" fill="#656365"/>
  <path fill="none" d="M37.4 28.1h53.1v71.8H37.4z"/>
  <path fill="#fff" fill-opacity=".85" d="M37.4 37.9V90c0 6.6 3.3 9.8 9.7 9.8h33.7c6.5 0 9.7-3.3 9.7-9.8V37.9c0-6.6-3.2-9.8-9.7-9.8H47.2c-6.5 0-9.8 3.3-9.8 9.8zM64 89.8c-8.1 0-14.6-6.4-14.6-14.6 0-8.1 6.5-14.6 14.6-14.6S78.6 67 78.6 75.2 72.1 89.8 64 89.8zm0-35.5c-4.5 0-8.1-3.6-8.1-8.1s3.6-8.1 8.1-8.1 8.1 3.6 8.1 8.1c.1 4.5-3.6 8.1-8.1 8.1zm0 27.1c3.5 0 6.2-2.8 6.2-6.2 0-3.5-2.7-6.2-6.2-6.2s-6.2 2.7-6.2 6.2c0 3.4 2.8 6.2 6.2 6.2zm0-31c2.3 0 4.1-1.9 4.1-4.1 0-2.3-1.9-4.1-4.1-4.1-2.3 0-4.1 1.7-4.1 4.1 0 2.2 1.8 4.1 4.1 4.1z"/>
  <path fill="#fff" fill-opacity=".212" d="M64 89.8c-8.1 0-14.6-6.4-14.6-14.6 0-8.1 6.5-14.6 14.6-14.6S78.6 67 78.6 75.2 72.1 89.8 64 89.8zm0-35.5c-4.5 0-8.1-3.6-8.1-8.1s3.6-8.1 8.1-8.1 8.1 3.6 8.1 8.1c.1 4.5-3.6 8.1-8.1 8.1z"/>
</svg>

<?xml version="1.0" encoding="utf-8"?>
<!-- Generator: Adobe Illustrator 26.0.2, SVG Export Plug-In . SVG Version: 6.00 Build 0)  -->
<svg version="1.1" id="Layer_1" xmlns="http://www.w3.org/2000/svg" xmlns:xlink="http://www.w3.org/1999/xlink" x="0px" y="0px"
	 viewBox="0 0 128 128" style="enable-background:new 0 0 128 128;" xml:space="preserve">
<style type="text/css">
	.st0{fill:#656365;}
	.st1{fill-opacity:0;}
	.st2{fill:#FFFFFF;fill-opacity:0.85;}
	.st3{fill:#FFFFFF;fill-opacity:0.2125;}
</style>
<circle class="st0" cx="64" cy="64" r="64"/>
<g>
	<rect x="37.4" y="28.1" class="st1" width="53.1" height="71.8"/>
	<path class="st2" d="M37.4,37.9V90c0,6.6,3.3,9.8,9.7,9.8h33.7c6.5,0,9.7-3.3,9.7-9.8V37.9c0-6.6-3.2-9.8-9.7-9.8H47.2
		C40.7,28.1,37.4,31.4,37.4,37.9z M64,89.8c-8.1,0-14.6-6.4-14.6-14.6c0-8.1,6.5-14.6,14.6-14.6c8.1,0,14.6,6.4,14.6,14.6
		C78.6,83.4,72.1,89.8,64,89.8z M64,54.3c-4.5,0-8.1-3.6-8.1-8.1c0-4.5,3.6-8.1,8.1-8.1c4.5,0,8.1,3.6,8.1,8.1
		C72.2,50.7,68.5,54.3,64,54.3z M64,81.4c3.5,0,6.2-2.8,6.2-6.2c0-3.5-2.7-6.2-6.2-6.2c-3.5,0-6.2,2.7-6.2,6.2
		C57.8,78.6,60.6,81.4,64,81.4z M64,50.4c2.3,0,4.1-1.9,4.1-4.1c0-2.3-1.9-4.1-4.1-4.1c-2.3,0-4.1,1.7-4.1,4.1
		C59.9,48.5,61.7,50.4,64,50.4z"/>
	<path class="st3" d="M64,89.8c-8.1,0-14.6-6.4-14.6-14.6c0-8.1,6.5-14.6,14.6-14.6c8.1,0,14.6,6.4,14.6,14.6
		C78.6,83.4,72.1,89.8,64,89.8z M64,54.3c-4.5,0-8.1-3.6-8.1-8.1c0-4.5,3.6-8.1,8.1-8.1c4.5,0,8.1,3.6,8.1,8.1
		C72.2,50.7,68.5,54.3,64,54.3z"/>
</g>
</svg>
